uploads/global/teams_04.svg

<svg height="40" viewBox="0 0 40 40" width="40" xmlns="http://www.w3.org/2000/svg"><g fill="#04de47" transform="translate(2.534351 2.092308)"><path d="m1.42123525 34.0923077 21.31852885-21.3076923 2.3691991 2.3679949-19.66136847 19.7678564z" opacity=".2"/><path d="m34.1096461 5.68205128c.7849265 0 1.4212352-.63598525 1.4212352-1.42051282v-2.84102564c0-.78452757-.6363087-1.42051282-1.4212352-1.42051282h-2.8424705c-.7849266 0-1.4212353.63598525-1.4212353 1.42051282v1.42051282h-24.16099929v-1.42051282c0-.78452757-.63630869-1.42051282-1.42123525-1.42051282h-2.84247051c-.78492655 0-1.42123525.63598525-1.42123525 1.42051282v2.84102564c0 .78452757.6363087 1.42051282 1.42123525 1.42051282h1.42123526v10.65384612c0 .3922638.31815435.7102564.71061762.7102564.39246328 0 .71061763-.3179926.71061763-.7102564v-10.65384612c.78492656 0 1.42123525-.63598525 1.42123525-1.42051282h24.16099929c0 .78452757.6363087 1.42051282 1.4212353 1.42051282v24.14871792c-.7849266 0-1.4212353.6359853-1.4212353 1.4205129h-10.6592644c-.3924633 0-.7106176.3179926-.7106176.7102564 0 .3922637.3181543.7102564.7106176.7102564h10.6592644v1.4205128c0 .7845276.6363087 1.4205128 1.4212353 1.4205128h2.8424705c.7849265 0 1.4212352-.6359852 1.4212352-1.4205128v-2.8410256c0-.7845276-.6363087-1.4205129-1.4212352-1.4205129h-1.4212353v-24.14871792zm-29.84594034-1.42051282h-2.84247051v-2.84102564h2.84247051zm29.84594034 26.98974364v2.8410256h-2.8424705v-2.8410256zm-2.8424705-26.98974364v-2.84102564h2.8424705v2.84102564z"/><path d="m24.9577438 13.5808128-3.0148664-3.0129077c-.8325207-.83200316-2.1822034-.83200316-3.0147242 0l-18.30380455 18.2939323c-.39989758.3997243-.62449178.9418899-.62434865 1.5071641v3.7233062c0 .7845276.6363087 1.4205128 1.42123525 1.4205128h3.72548397c.56543619-.0001389 1.10767461-.2247007 1.50750424-.6243154l18.30352034-18.2939323c.3999215-.3996129.624604-.9416675.624604-1.50688s-.2246825-1.1072671-.624604-1.50688zm-19.30847579 20.3033898c-.13289469.1338038-.31391622.2087647-.50254879.2081051l-3.7254861.0000043.00000213-3.7233105c-.00046292-.1886646.07449427-.3696978.20821097-.5028615l15.79106068-15.7830338 4.020106 4.0180625zm18.30352029-18.2946426-1.5072199 1.5071641-4.0201061-4.0180626 1.5075043-1.5064538c.277496-.2772713.7273172-.2772713 1.0048133 0l3.0148663 3.0130497c.2774516.2773158.2775152.7269084.0001421 1.0043026z"/></g></svg>

<?xml version="1.0" encoding="UTF-8"?>
<svg width="40px" height="40px" viewBox="0 0 40 40" version="1.1" xmlns="http://www.w3.org/2000/svg" xmlns:xlink="http://www.w3.org/1999/xlink">
    <!-- Generator: Sketch 52.4 (67378) - http://www.bohemiancoding.com/sketch -->
    <title>assets/homepage/teams_04</title>
    <desc>Created with Sketch.</desc>
    <g id="Page-1" stroke="none" stroke-width="1" fill="none" fill-rule="evenodd">
        <g id="Wunder-Careers-03-Teams" transform="translate(-40.000000, -2538.000000)" fill="#04DE47" fill-rule="nonzero">
            <g id="Enginiering-Copy-3" transform="translate(10.000000, 2292.000000)">
                <g id="Group-16" transform="translate(30.000000, 246.000000)">
                    <g id="vector-editing" transform="translate(2.534351, 2.092308)">
                        <polyline id="Path" opacity="0.200000003" points="1.42123525 34.0923077 22.7397641 12.7846154 25.1089632 15.1526103 5.44759473 34.9204667 1.42123525 34.0923077"></polyline>
                        <path d="M34.1096461,5.68205128 C34.8945726,5.68205128 35.5308813,5.04606603 35.5308813,4.26153846 L35.5308813,1.42051282 C35.5308813,0.635985253 34.8945726,4.80384587e-17 34.1096461,0 L31.2671756,0 C30.482249,-4.80384587e-17 29.8459403,0.635985253 29.8459403,1.42051282 L29.8459403,2.84102564 L5.68494101,2.84102564 L5.68494101,1.42051282 C5.68494101,0.635985253 5.04863232,4.80384587e-17 4.26370576,0 L1.42123525,0 C0.636308697,-4.80384587e-17 9.61257795e-17,0.635985253 0,1.42051282 L0,4.26153846 C9.61257795e-17,5.04606603 0.636308697,5.68205128 1.42123525,5.68205128 L2.84247051,5.68205128 L2.84247051,16.3358974 C2.84247051,16.7281612 3.16062486,17.0461538 3.55308813,17.0461538 C3.94555141,17.0461538 4.26370576,16.7281612 4.26370576,16.3358974 L4.26370576,5.68205128 C5.04863232,5.68205128 5.68494101,5.04606603 5.68494101,4.26153846 L29.8459403,4.26153846 C29.8459403,5.04606603 30.482249,5.68205128 31.2671756,5.68205128 L31.2671756,29.8307692 C30.482249,29.8307692 29.8459403,30.4667545 29.8459403,31.2512821 L19.1866759,31.2512821 C18.7942126,31.2512821 18.4760583,31.5692747 18.4760583,31.9615385 C18.4760583,32.3538022 18.7942126,32.6717949 19.1866759,32.6717949 L29.8459403,32.6717949 L29.8459403,34.0923077 C29.8459403,34.8768353 30.482249,35.5128205 31.2671756,35.5128205 L34.1096461,35.5128205 C34.8945726,35.5128205 35.5308813,34.8768353 35.5308813,34.0923077 L35.5308813,31.2512821 C35.5308813,30.4667545 34.8945726,29.8307692 34.1096461,29.8307692 L32.6884108,29.8307692 L32.6884108,5.68205128 L34.1096461,5.68205128 Z M4.26370576,4.26153846 L1.42123525,4.26153846 L1.42123525,1.42051282 L4.26370576,1.42051282 L4.26370576,4.26153846 Z M34.1096461,31.2512821 L34.1096461,34.0923077 L31.2671756,34.0923077 L31.2671756,31.2512821 L34.1096461,31.2512821 Z M31.2671756,4.26153846 L31.2671756,1.42051282 L34.1096461,1.42051282 L34.1096461,4.26153846 L31.2671756,4.26153846 Z" id="Shape"></path>
                        <path d="M24.9577438,13.5808128 L21.9428774,10.5679051 C21.1103567,9.73590194 19.760674,9.73590194 18.9281532,10.5679051 L0.624348647,28.8618374 C0.224451072,29.2615617 -0.000143128568,29.8037273 6.31155232e-16,30.3690015 L6.31155232e-16,34.0923077 C7.27281017e-16,34.8768353 0.636308697,35.5128205 1.42123525,35.5128205 L5.14671922,35.5128205 C5.71215541,35.5126816 6.25439383,35.2881198 6.65422346,34.8885051 L24.9577438,16.5945728 C25.3576653,16.1949599 25.5823478,15.6529053 25.5823478,15.0876928 C25.5823478,14.5224803 25.3576653,13.9804257 24.9577438,13.5808128 Z M5.64926801,33.8842026 C5.51637332,34.0180064 5.33535179,34.0929673 5.14671922,34.0923077 L1.42123312,34.092312 L1.42123525,30.3690015 C1.42077233,30.1803369 1.49572952,29.9993037 1.62944622,29.86614 L17.4205069,14.0831062 L21.4406129,18.1011687 L5.64926801,33.8842026 Z M23.9527883,15.58956 L22.4455684,17.0967241 L18.4254623,13.0786615 L19.9329666,11.5722077 C20.2104626,11.2949364 20.6602838,11.2949364 20.9377799,11.5722077 L23.9526462,14.5852574 C24.2300978,14.8625732 24.2301614,15.3121658 23.9527883,15.58956 Z" id="Shape"></path>
                    </g>
                </g>
            </g>
        </g>
    </g>
</svg>
